svgs/duotone/heart-circle-xmark.svg

<svg xmlns="http://www.w3.org/2000/svg" viewBox="0 0 576 512"><!--! Font Awesome Pro 6.4.2 by @fontawesome - https://fontawesome.com License - https://fontawesome.com/license (Commercial License) Copyright 2023 Fonticons, Inc. --><path class="fa-primary" style="fill:var(--fa-primary-color,inherit);opacity:var(--fa-primary-opacity,1);" d="M288 368a144 144 0 1 1 288 0 144 144 0 1 1 -288 0zm203.3-59.3c-6.2-6.2-16.4-6.2-22.6 0L432 345.4l-36.7-36.7c-6.2-6.2-16.4-6.2-22.6 0s-6.2 16.4 0 22.6L409.4 368l-36.7 36.7c-6.2 6.2-6.2 16.4 0 22.6s16.4 6.2 22.6 0L432 390.6l36.7 36.7c6.2 6.2 16.4 6.2 22.6 0s6.2-16.4 0-22.6L454.6 368l36.7-36.7c6.2-6.2 6.2-16.4 0-22.6z"/><path class="fa-secondary" style="fill:var(--fa-secondary-color,inherit);opacity:var(--fa-secondary-opacity,.4);" d="M507 208.7C484.3 198 458.8 192 432 192c-97.2 0-176 78.8-176 176c0 35.7 10.6 68.9 28.9 96.6l-5.4 5.6c-13 13-34 13-45.9 0L39.7 270.5c-55.9-57.9-52.9-153.8 10-207.8c53.9-47 136.8-38 186.8 13l20 21 19-21c49.9-50.9 131.8-59.9 187.8-13c42.9 37.4 57.5 95 43.8 146.1z"/></svg>

<svg xmlns="http://www.w3.org/2000/svg" viewBox="0 0 576 512"><!--! Font Awesome Pro 6.1.1 by @fontawesome - https://fontawesome.com License - https://fontawesome.com/license (Commercial License) Copyright 2022 Fonticons, Inc. --><defs><style>.fa-secondary{opacity:.4}</style></defs><path class="fa-primary" d="M576 368C576 447.5 511.5 512 432 512C352.5 512 288 447.5 288 368C288 288.5 352.5 224 432 224C511.5 224 576 288.5 576 368zM468.7 308.7L432 345.4L395.3 308.7C389.1 302.4 378.9 302.4 372.7 308.7C366.4 314.9 366.4 325.1 372.7 331.3L409.4 368L372.7 404.7C366.4 410.9 366.4 421.1 372.7 427.3C378.9 433.6 389.1 433.6 395.3 427.3L432 390.6L468.7 427.3C474.9 433.6 485.1 433.6 491.3 427.3C497.6 421.1 497.6 410.9 491.3 404.7L454.6 368L491.3 331.3C497.6 325.1 497.6 314.9 491.3 308.7C485.1 302.4 474.9 302.4 468.7 308.7V308.7z"/><path class="fa-secondary" d="M507 208.7C484.3 198 458.8 192 432 192C334.8 192 256 270.8 256 368C256 403.7 266.6 436.9 284.9 464.6L279.4 470.3C266.4 483.2 245.5 483.2 233.5 470.3L39.71 270.5C-16.22 212.5-13.23 116.6 49.7 62.68C103.6 15.73 186.5 24.72 236.5 75.67L256.4 96.64L275.4 75.67C325.4 24.72 407.3 15.73 463.2 62.68C506.1 100.1 520.7 157.6 507 208.7z"/></svg>
